localPackages/DesignSystem/Sources/DesignSystem/Resources/Assets.xcassets/IconSet/ic-code.imageset/ic-code.svg

<svg width="24" height="24" viewBox="0 0 24 24" fill="none" xmlns="http://www.w3.org/2000/svg">
<g id="ic-code">
<path id="Icon" fill-rule="evenodd" clip-rule="evenodd" d="M14.2437 6.18197C14.3449 5.78012 14.0988 5.37292 13.694 5.27245C13.2893 5.17198 12.8792 5.4163 12.778 5.81815L9.7563 17.818C9.65511 18.2199 9.90118 18.6271 10.3059 18.7275C10.7107 18.828 11.1208 18.5837 11.222 18.1818L14.2437 6.18197ZM7.31655 6.45042C7.56686 6.11905 7.49922 5.64895 7.16547 5.40042C6.83171 5.15189 6.35823 5.21905 6.10791 5.55042L1.71151 11.3704C1.4295 11.7438 1.4295 12.2571 1.71151 12.6304L6.10791 18.4504C6.35823 18.7818 6.83171 18.8489 7.16547 18.6004C7.49922 18.3519 7.56686 17.8818 7.31655 17.5504L3.1241 12.0004L7.31655 6.45042ZM17.8921 5.55042C17.6418 5.21905 17.1683 5.15189 16.8345 5.40042C16.5008 5.64895 16.4331 6.11905 16.6835 6.45042L20.8759 12.0004L16.6835 17.5504C16.4331 17.8818 16.5008 18.3519 16.8345 18.6004C17.1683 18.8489 17.6418 18.7818 17.8921 18.4504L22.2885 12.6304C22.5705 12.2571 22.5705 11.7438 22.2885 11.3704L17.8921 5.55042Z" fill="#0F0F0F"/>
</g>
</svg>

<svg xmlns="http://www.w3.org/2000/svg" width="24" height="24" viewBox="0 0 24 24">
  <g class="ic-code">
    <path fill-rule="evenodd" d="M14.244 6.182a.756.756 0 0 0-1.466-.364l-3.022 12a.756.756 0 0 0 1.466.364l3.022-12Zm-6.927.269a.746.746 0 0 0-.152-1.05.759.759 0 0 0-1.057.15l-4.396 5.82a1.044 1.044 0 0 0 0 1.26l4.396 5.82a.759.759 0 0 0 1.057.15.746.746 0 0 0 .152-1.05L3.124 12l4.193-5.55Zm10.575-.9a.759.759 0 0 0-1.058-.15.746.746 0 0 0-.15 1.05L20.875 12l-4.193 5.55a.746.746 0 0 0 .151 1.05.759.759 0 0 0 1.058-.15l4.396-5.82a1.044 1.044 0 0 0 0-1.26l-4.396-5.82Z" class="Icon"/>
  </g>
</svg>
